X:1
T:Se vedesse le piaghe
T:Raffaello Rontani
T:Source :Le varie Musiche a uno e due voci---Roma---G.B.Robletti---1622. Editor : André Vierendeels (03/05/16).
T:Notes : Original clefs : C4, C4,  F4 BC based on "alfabetico" notated in original print Figures in BC are notated in original print
T:Se vedesse le piaghe
T:©
T:©
C:Raffaello Rontani
Z:©
%%score [ 1 2 ] { ( 3 4 ) | 5 }
L:1/8
Q:1/4=120
M:4/4
K:C
V:1 treble-8 nm="Tenor 1" snm="T 1"
V:2 treble-8 nm="Tenor 2" snm="T 2"
V:3 treble nm="BC" snm="BC"
V:4 treble 
V:5 bass 
V:1
 z2 ee e2 ed | d2 cc c2 cB | c2 EE E2 ^FG | A2 AA A2 A^G | A4 c4 | BB c4 B2 |[M:2/4] c4 :: z2 EF | %8
w: 1)Se ve- des- si le|pia- ghe ch'io por- to nel|cor, cre- de- re- sti cru-|del al mio gra- ve do-|lor, e|pian- ge- re- *|sti,|mà per-|
w: 2)Se pro- vas- se l'ar-|dor che mi fà ve- nir|men, ha- ve- re- sti pie-|ta del pia- ga- to mio|sen, e|pian- ge- re- *|sti,|for- se,|
[M:4/4] G2 ^FG A2 GA | B2 Bc d2 ed | d3 ^c d2 ^FG | A2 BA A2 ^G2 | A2 cc B4- | B2 BA A4 | G4 z4 | %15
w: che se- te pri- va d'a-|mor non cre- de- te'al mar-|teo- ro, _ non cre-|de- te'al mar- teo- *|ro, e ve- de-|* te ch'io mo-|ro,|
w: for- se quel vi- so se-|ren, vol- ge- re- sti pie-|to- so, _ vol- ge-|re- sti pie- to- *|so, e non tan-|* to ve- do-|so,|
 z2 cB A2 cc | c2- B2 c4 |] %17
w: e ve- de- te ch'io|mo- * ro.|
w: e non tan- to ve-|do- * so.|
V:2
 z2 cc c2 cB | B2 cc d2 dd | c2 GG G2 AB | c2 cc B2 BA | A4 z2 f2- | f2 ed d4 |[M:2/4] c4 :: %7
w: 1)Se ve- des- si le|pia- che ch'io por- to nel|cor, cre- de- re- sti cru-|del al mio gra- ve do-|lor, e|_ pian- ge- re-|sti,|
w: 2)Se pro- vas- se l'ar-|dor che mi fa ve- nir|men, ha- ve- re- sti pie-|ta del pia- ga- to mio|sen, e|_ pian- ge- re-|sti,|
 z2 GA |[M:4/4] B2 AB c2 Bc | d2 de f2 gf | e4 d2 AB | c2 dc B4 | A4 z2 GF | E2 GG G3 ^F | %14
w: mà per-|che se- te pri- va d'a-|mor non cre- de- te'al mar-|teo- ro, non cre-|de- te'al mar- teo-|ro, e ve-|de- te ch'io mo- ro,|
w: for- se,|for- se quel vi- so se-|ren, vol- ge- re- sti pie-|to- so, vol- ge-|re- sti pie- to-|so, e non|tan- to ve- do- so,|
 G4 z2 ff | e6 ed | d4 c4 |] %17
w: _ e ve-|de- te ch'io|mo- ro.|
w: _ e non|tan- to ve-|do- so.|
V:3
 G4 c4 | d2 c2 c2 B2 | c6 d2 | A4 B4 | c4 c4 | d8 |[M:2/4] c4 :: G4 |[M:4/4] d4 e4 | B4 A2 d2- | %10
 d2 ^c2 d4 | B4 B4 | c4 G2 B2 | e2 c2 d4 | B4 A4 | G4 F2 c2 | d4 G4 |] %17
V:4
 E4 G4 | G2 G2 A2 G2 | E6 D2 | E4 E4 | E4 A4 | G8 |[M:2/4] E4 :: E4 |[M:4/4] G4 c4 | G4 F4 | %10
 E4 A4 | E4 A2 ^G2 | A4 D4 | G4 A4 | D4 F4 | B,4 C2 F2 | G4 E4 |] %17
V:5
 C,4 C,4 | G,,2 E,,2 F,,2 G,,2 | C,6 B,,2 | A,,4 E,4 | A,,4 A,,2 F,,2 | G,,8 |[M:2/4] C,4 :: C,4 | %8
[M:4/4] B,,4 A,,4 | G,,2 G,2 D,4 |"^4#""^#" A,,4 D,4 | A,,4 E,4 | A,,4 B,,4 | C,2 E,2 D,4 | %14
 G,,4 D,4 | E,4 F,2 A,2 | G,4 C,4 |] %17

